X:1
T:The Angel Cried Out
T:Ангел вопияше
T:Modest Mussorgsky
T:The Angel Cried Out
T:The Angel cried to the Lady Full of Grace: Rejoice, O Pure Virgin! Again I say: Rejoice! Your Son is risen from His three days in the tomb.  With Himself He has raised all the dead. Rejoice, all ye people!  Shine, shine, O New Jerusalem, The glory of the Lord has shone on you. Exult now and be glad, O Zion, Be radiant, O Pure Theotokos, In the Resurrection of your Son!
T:by IMSLP - Public Domain
T:by IMSLP - Public Domain
T:by IMSLP - Public Domain
C:Modest Mussorgsky
Z:by IMSLP - Public Domain
%%score [ ( 1 2 ) 3 4 5 ]
L:1/8
Q:1/2=52
M:6/2
K:A
V:1 treble nm="Soprano"
V:2 treble 
V:3 treble nm="Alto"
V:4 treble-8 nm="Tenor"
V:5 bass nm="Bass"
V:1
 z24 |[M:5/2]!p! c4 c2 B2 A2 B2!>(! c2 (B!>)!A) B2 B2 | %2
w: |Чис- та- я Де во, ра- дуй- * ся- И|
[M:4/2] c2 c2 c2 d2!>(! (e2 dc)!>)!!<(! d2 e2!<)! | %3
w: па- ки ре- ку: ра- * * дуй- ся!|
!mf! [Bd]4 [FA]2 [GB]2!>(! ([Ac]2 [GB]!>)![FA]) [GB]2 [GB]2 | %4
w: |
 [Bd]4 [FA]2 [GB]2!>(! ([Ac]2 [GB][FA])!>)! [GB]2 [GB]2 | %5
w: |
"^cresc." [Ac]2 [Ac]2 [Ac]2 [Bd]2 (!>!e2 dc) B2 A2 |[M:6/2] f4 f2 f2!>(! e2 d2 c4 A4 B4!>)! || %7
w: ||
[M:5/2]!p! E2 | !>!E4 E4 E4 !>!E4 E4 |[M:4/2] E2 E2 E2!<(! F2 G2 A2!<)! [GB]2 [Ac]2 | %10
w: |||
 [Bd]2 [Bd]2 [FA]2 [GB]2 ([Ac]2 [GB][FA]) ([GB]2 [Ac]2) | [Bd]2 [ce]2 [df]4 e2 d2 c z || A2 | %13
w: ||Ан-|
!f! e8- e8- |[M:5/2] e8- e2 (ed)!>(! (e2 c2)!>)! B4 |[M:4/2] B2 B2 !>!B3 B B2 B2 B2 B2 | %16
w: куй *|||
 B2 B2 B2 B2 c4 c2!<(! ^d2 | e8-!<)! e4 e2 e2 |[M:2/4] e2 e2 |[M:4/2] !>![cf]8 !>![cf]4 !>![eg]4 | %20
w: * * * * * о вос-|та- * ни- и|||
!ff! !fermata![eg]8 |] %21
w: |
V:2
 x24 |[M:5/2] x20 |[M:4/2] x16 | x16 | x16 | x8 A4 B2 A2 |[M:6/2] x16 (E2 F2) G4 ||[M:5/2] x2 | %8
 x20 |[M:4/2] x16 | x16 | x14 || x2 | x16 |[M:5/2] x20 |[M:4/2] x16 | x16 | x16 |[M:2/4] x4 | %19
[M:4/2] x16 | x8 |] %21
V:3
 z24 |[M:5/2] A4 A2 G2 F2 G2 A2 (GF) G2 G2 |[M:4/2] A2 A2 A2 B2 (c2 BA) B2 c2 | F4 C2 E2 E4 E2 E2 | %4
w: |||Твой Сын вос- кре- се три-|
 F4 C2 E2 E4 E2 E2 | E2 E2 E2 F2 E2 (F2 G2) F2 |[M:6/2] A4 A2 A2 E2 E2 E4 E4 E4 ||[M:5/2] B,2 | %8
w: дне- вен от гро- ба, и|мерт- вы- я воз- двиг- * ну- вый:|лю- ди- е, ве- се- ли- те- ся.|Све-|
 B,4 B,4 B,4 B,4 B,4 |[M:4/2] B,2 B,2 B,2 E2 E2 E2 E2 E2 | F2 F2 E2 E2 E4 E4 | %11
w: ти- ся, све- ти- ся,|но- вый И- е- ру- са- ли- ме:|сла- ва бо Гос- под- ня|
 F2 A2 A4 E2 E2 E z || z2 | z2 E2 (A2 GF) (G2 F2) E4 |[M:5/2] E2 F G (A2 B2) A2 (GF) (G2 F2) G4 | %15
w: на те- бе воз- си- я.||Ли- куй * * ны- * не|и ве- се- ли- * ся, Си- * о- * не.|
[M:4/2] G2 G2 !>!F3 ^D E2 F2 G2 G2 | G2 (GA) G2 F2 C4 z4 | z4 E2 E2 A4 A2 A2 |[M:2/4] A2 A2 | %19
w: Ты же, Чис- та- я, кра- суй- ся,|Бо- го- * ро- ди- це,|о вос- та- ни- и|Рож- де-|
[M:4/2] !>![FA]8 !>![FA]4 !>![GB]4 | !fermata![GB]8 |] %21
w: ства Тво- е-|го.|
V:4
 e2 e2 e2 e2 e2 f2 d2 c2 (B2 ce)!p! e4- |[M:5/2] e8- e8- e4- |[M:4/2] e8- e8 | %3
w: Ан- гел во- пи- я ше Бла- го- дат- * * ней:|||
!mf! B4 A2 B2 (A2 BA) B2 B2 | B4 A2 B2!>(! (A2 BA)!>)! B2 B2 | c2 c2 c2 B2!<(! A4 G2 A2!<)! | %6
w: |||
[M:6/2] d4 d2 d2 A2 G2 A4 A4 B4 ||[M:5/2] G2 | G4 G4 G4 G4 G4 | %9
w: |||
[M:4/2] G2 G2 G2!<(! A2 B2 (c!<)!B) [GB]2 [Ac]2 | B2 B2 A2 B2 (A2 BA) (B2 A2) | %11
w: ||
 B2 c2 d4 A2 G2 A z || A2 |!f! e8- e8- |[M:5/2] e8- e2 e2!>(! e4 e4!>)! | %15
w: |Ан-|куй *||
[M:4/2] B2 B2 !>!B3 B B2 B2 B2 B2 | B2 B2 B2 B2 c4 c2 ^d2 | e8- e4 e2 e2 |[M:2/4] e2 e2 | %19
w: |* * * * * о вос-|та- * ни- и||
[M:4/2] !>!e8 !>!f4 !>!e4 |!ff! !fermata!e8 |] %21
w: ||
V:5
 E,2 E,2 E,2 E,2 E,2 F,2 D,2 C,2 (B,,2 [A,,A,][G,,G,]) [E,,E,]4- | %1
w: |
[M:5/2] [E,,E,]8- [E,,E,]8- [E,,E,]4 |[M:4/2] z16 | B,,4 F,2 E,2 (A,,2 E,2) E,2 E,2 | %4
w: |||
 B,,4 F,2 E,2 (A,,2 E,2) E,2 E,2 | A,,2 A,,2 A,,2 B,,2 (C,2 D,2) E,2 F,2 | %6
w: ||
[M:6/2] D,4 D,2 D,2 C,2 B,,2 A,,4 C,4 E,4 ||[M:5/2] z2 | %8
w: ||
 z2 B,,2 D,2 D,2 D,4 (B,,2 C,D,) (E,2 B,,2) |[M:4/2] D,2 D,2 D,2 C,2 B,,2 (A,,B,,) E,2 E,2 | %10
w: Све- ти- ся, * * * * * *||
 B,,2 B,,2 F,2 E,2 (A,,2 E,2) (E,2 C,2) | B,,2 A,,2 D,4 C,2 B,,2 A,, z || z2 | %13
w: |||
 z2 E,2 (C2 B,A,) (B,2 A,2) E,4 |[M:5/2] E,2 A, B, (C2 D2) C2 (B,A,) (B,2 A,2) E,4 | %15
w: Ли- куй * * ны- * не|и ве- се- ли- * ся, * * * * *|
[M:4/2] E,2 E,2 !>!^D,3 B,, C,2 D,2 E,2 E,2 | E,2 (E,F,) E,2 ^D,2 C,4 z4 | z4 E,2 E,2 C4 C2 C2 | %18
w: ||о вос- та- ни- и|
[M:2/4] C2 C2 |[M:4/2] !>![A,C]8 !>![A,C]4 !>![E,B,]4 | !fermata![E,B,]8 |] %21
w: |||

